app/assets/icons/google.svg

<svg width="32" height="32" viewBox="0 0 32 32" fill="none" xmlns="http://www.w3.org/2000/svg">
<path d="M31.6888 12.8664H30.4V12.8H16V19.2H25.0424C23.7232 22.9256 20.1784 25.6 16 25.6C10.6984 25.6 6.4 21.3016 6.4 16C6.4 10.6984 10.6984 6.4 16 6.4C18.4472 6.4 20.6736 7.3232 22.3688 8.8312L26.8944 4.3056C24.0368 1.6424 20.2144 0 16 0C7.164 0 0 7.164 0 16C0 24.836 7.164 32 16 32C24.836 32 32 24.836 32 16C32 14.9272 31.8896 13.88 31.6888 12.8664Z" fill="#FFC107"/>
<path d="M2 8.27157L7.24639 12C8.66597 8.5942 12.104 6.18956 16.1272 6.18956C18.5695 6.18956 20.7915 7.0824 22.4834 8.54081L27 4.16402C24.1481 1.58839 20.3332 0 16.1272 0C9.99374 0 4.67469 3.35551 2 8.27157Z" fill="#FF3D00"/>
<path d="M16.2604 32C20.398 32 24.1575 30.3882 27 27.7672L22.0423 23.4969C20.38 24.7837 18.3488 25.4797 16.2604 25.478C12.094 25.478 8.55635 22.7738 7.22362 19L2 23.0966C4.65105 28.377 10.0349 32 16.2604 32Z" fill="#4CAF50"/>
<path d="M31.6888 13.0661H30.4V13H16V19.3734H25.0424C24.4114 21.1392 23.2747 22.6821 21.7728 23.8117L21.7752 23.8101L26.7272 27.9831C26.3768 28.3002 32 24.1535 32 16.1867C32 15.1184 31.8896 14.0755 31.6888 13.0661Z" fill="#1976D2"/>
</svg>

<svg width="32" height="32" fill="none" xmlns="http://www.w3.org/2000/svg"><path d="M31.689 12.866H30.4V12.8H16v6.4h9.042c-1.319 3.726-4.864 6.4-9.042 6.4-5.302 0-9.6-4.298-9.6-9.6s4.298-9.6 9.6-9.6c2.447 0 4.674.923 6.369 2.431l4.525-4.525C24.037 1.642 20.214 0 16 0 7.164 0 0 7.164 0 16s7.164 16 16 16 16-7.164 16-16c0-1.073-.11-2.12-.311-3.134Z" fill="#FFC107"/><path d="M2 8.272 7.246 12c1.42-3.406 4.858-5.81 8.881-5.81 2.443 0 4.665.892 6.356 2.35L27 4.165A16.172 16.172 0 0 0 16.127 0C9.994 0 4.675 3.356 2 8.272Z" fill="#FF3D00"/><path d="M16.26 32c4.138 0 7.897-1.612 10.74-4.233l-4.958-4.27a9.43 9.43 0 0 1-5.782 1.981c-4.166 0-7.704-2.704-9.036-6.478L2 23.097C4.651 28.377 10.035 32 16.26 32Z" fill="#4CAF50"/><path d="M31.689 13.066H30.4V13H16v6.373h9.042a9.594 9.594 0 0 1-3.27 4.439l.003-.002 4.952 4.173C26.377 28.3 32 24.153 32 16.187c0-1.069-.11-2.112-.311-3.12Z" fill="#1976D2"/></svg>
